!!!COM: Music21
!!!OTL: Pasacorredoiras de Parteme
!!!OMV: pezas_pasacorredoiras_pasacorredoiras-de-parteme_pasacorredoiras-de-parteme-partitura.musicxml
**kern
*I"Bagpipes
*I'Bag
*clefG^2
*k[]
*M2/4
=1
!LO:TX:a:t=Allegretto
*MM110
!LO:TX:a:t=[quarter]=110
8ggL
16ggL
16eeJJ
16ccLL
16ee
16gg
16eeJJ
=
8ffL
16ffL
16ddJJ
4b
=
8aaL
16aaL
16ffJJ
16ddLL
16ff
16aa
16ffJJ
=
8ggL
16ggL
16eeJJ
4cc
=
8cccL
16cccL
16ggJJ
16eeLL
16gg
16ccc
16dddJJ
=
8bbL
16bbL
16ffJJ
16ddLL
16ff
16bb
16cccJJ
=
8aaL
16aaL
16ffJJ
16ddLL
16ff
16aa
16bbJJ
!!linebreak:original
=
8ggL
16ggL
16ffJJ
16eeLL
16dd
16ee
16ffJJ
=
8ggL
16ggL
16eeJJ
16ccLL
16ee
16gg
16eeJJ
=
8ffL
16ffL
16ddJJ
4b
=
8aaL
16aaL
16ffJJ
16ddLL
16ff
16aa
16bbJJ
=
8ggL
16ggL
16eeJJ
4cc
=
8aa-XL
16aa-L
16ffJJ
16ddLL
16ff
16aa-
16ffJJ
=
8ggL
16ggL
16eeJJ
16ccLL
16ee
16gg
16eeJJ
!!linebreak:original
=
8ffL
16ffL
16ddJJ
16bLL
16ff
16ee
16ddJJ
=
[4cc
8ccL]
16ggL
16ffJJ
=||
16eeLL
16ff
16ee
16ddJJ
16ccLL
16b
16gg
16ffJJ
=
8eeL
16ccL
16eeJJ
16ddLL
16cc
16b
16ccJJ
=
8ddL
16bL
16ffJJ
16eeLL
16dd
16cc
16ddJJ
=
8eeL
[8ccJ
8ccL]
16ggL
16ffJJ
!!linebreak:original
=
16eeLL
16ff
16ee
16ddJJ
16ccLL
16b
16gg
16ffJJ
!!linebreak:original
=
8eeL
16ccL
16eeJJ
16ddLL
16cc
16b
16ccJJ
=
8ddL
16bL
16ffJJ
16eeLL
16dd
16cc
16bJJ
=
[4cc
8ccL]
16ggL
16ffJJ
=||
16eeLL
16ff
16ee
16ddJJ
16ccLL
16b
16gg
16ffJJ
=
8eeL
16ccL
16eeJJ
16ddLL
16cc
16b
16ccJJ
=
8ddL
16bL
16ffJJ
16eeLL
16dd
16cc
16ddJJ
!!linebreak:original
=
8eeL
[8ccJ
8ccL]
16ggL
16ffJJ
=
16eeLL
16ff
16ee
16ddJJ
16ccLL
16b
16gg
16ffJJ
!!linebreak:original
=
8eeL
16ccL
16eeJJ
16ddLL
16cc
16b
16ccJJ
=
8ddL
16bL
16ffJJ
16eeLL
16dd
16cc
16bJJ
=
[4cc
8ccL]
16ggL
16ffJJ
=||
16eeLL
16ee
16ee
16ddJJ
16ccLL
16ee
16gg
16eeJJ
=
16ffLL
16ff
16ff
16eeJJ
16ddLL
16ff
16aa
16ffJJ
!!linebreak:original
=
16ggLL
16gg
16gg
16eeJJ
16ffLL
16ff
16ff
16bJJ
=
8ddL
[8ccJ
8ccL]
16ggL
16ffJJ
=
16eeLL
16ee
16ee
16ddJJ
16ccLL
16ee
16gg
16eeJJ
=
16ffLL
16ff
16ff
16eeJJ
16ddLL
16ff
16aa
16ffJJ
=
16ggLL
16gg
16gg
16eeJJ
16ffLL
16ff
16ff
16bJJ
=
[4cc
8ccL]
16ggL
16ffJJ
!!linebreak:original
=||
16eeLL
16ee
16ee
16ddJJ
16ccLL
16ee
16gg
16eeJJ
=
16ffLL
16ff
16ff
16eeJJ
16ddLL
16ff
16aa
16ffJJ
!!linebreak:original
=
16ggLL
16gg
16gg
16eeJJ
16ffLL
16ff
16ff
16bJJ
=
8ddL
[8ccJ
8ccL]
16ggL
16ffJJ
=
16eeLL
16ee
16ee
16ddJJ
16ccLL
16ee
16gg
16eeJJ
=
16ffLL
16ff
16ff
16eeJJ
16ddLL
16ff
16aa
16ffJJ
=
16ggLL
16gg
16gg
16eeJJ
16ffLL
16ff
16ff
16bJJ
=
2cc
==
*-
